X:411
T: Yao shi laotian bu yia yu
N: C1446
O: China, Hubei, Dawu
S: I, 435]
R: Shange, Tiange, Cheshuige]
M: 2/4
L: 1/16
K: C
e2c2d4 | d2edc2A2 | e2ded2cA | c3AG4
A2Acd4 | c2d2c2A2 | c2d2c2A2 | A3GG4
A2cdd2d2 | c2d2c2A2 | A2A4A2 | d2d2c4
A2cdd2d2 | e2d2c2A2 | d2cdc2A2 | A4G4

